epam-assets/icon-sources/18/table-table_edit.svg

<svg width="18" height="18" viewBox="0 0 18 18" fill="none" xmlns="http://www.w3.org/2000/svg">
<g id="18/table-table_edit">
<path id="icon" fill-rule="evenodd" clip-rule="evenodd" d="M16.275 11.5125L15.525 12.2625L13.9875 10.725L14.7375 9.975C14.895 9.81 15.1575 9.81 15.315 9.975L16.275 10.935C16.44 11.0925 16.44 11.355 16.275 11.5125ZM9 15.705L13.5525 11.16L15.09 12.6975L10.545 17.25H9V15.705ZM3 3H13.5C14.3284 3 15 3.67157 15 4.5V7.6275L12.1275 10.5H9V13.6275L7.6275 15H3C2.17157 15 1.5 14.3284 1.5 13.5V4.5C1.5 3.67157 2.17157 3 3 3ZM3 6V9H7.5V6H3ZM9 6V9H13.5V6H9ZM3 10.5V13.5H7.5V10.5H3Z" fill="#6C6F80"/>
</g>
</svg>

<svg xmlns="http://www.w3.org/2000/svg" width="18" height="18" fill="none" viewBox="0 0 18 18">
  <path fill="#6C6F80" fill-rule="evenodd" d="m16.275 11.512-.75.75-1.537-1.537.75-.75a.399.399 0 0 1 .577 0l.96.96a.399.399 0 0 1 0 .577ZM9 15.705l4.553-4.545 1.537 1.537-4.545 4.553H9v-1.545ZM3 3h10.5A1.5 1.5 0 0 1 15 4.5v3.128L12.127 10.5H9v3.127L7.628 15H3a1.5 1.5 0 0 1-1.5-1.5v-9A1.5 1.5 0 0 1 3 3Zm0 3v3h4.5V6H3Zm6 0v3h4.5V6H9Zm-6 4.5v3h4.5v-3H3Z" clip-rule="evenodd"/>
</svg>
